ufans-frontend-package/public/assets/images/video-call/users.svg

<svg width="123" height="63" viewBox="0 0 123 63" fill="none" xmlns="http://www.w3.org/2000/svg">
<g clip-path="url(#clip0_1400_2)">
<path d="M19.13 42.2114C18.8441 41.8966 18.5801 41.5624 18.34 41.2114C17.76 40.4114 17.21 39.5814 16.69 38.7514L14.06 34.6014C13.2009 33.4991 12.6768 32.1731 12.55 30.7814C12.5224 30.1984 12.6783 29.6214 12.9959 29.1317C13.3134 28.6419 13.7765 28.2641 14.32 28.0514C14.23 26.4814 14.17 24.8914 14.17 23.3114C14.17 22.3814 14.17 21.4314 14.22 20.5114C14.2608 19.9212 14.3681 19.3375 14.54 18.7714C15.2716 16.396 16.8616 14.3782 19 13.1114C19.7677 12.6685 20.5744 12.2969 21.41 12.0014C22.94 11.4414 22.2 9.10139 23.88 9.06139C27.8 8.96139 34.25 12.3214 36.76 15.0614C38.4041 16.8074 39.3228 19.1132 39.33 21.5114L39.17 28.3814C39.5125 28.4652 39.8256 28.6407 40.0758 28.8892C40.326 29.1376 40.5038 29.4495 40.59 29.7914C40.738 31.0462 40.4786 32.3153 39.85 33.4114V33.4114C39.85 33.4714 39.8 33.4714 39.8 33.5214L36.8 38.4514C36.12 39.5614 35.42 40.7014 34.63 41.7414C33.7 42.9914 32.93 42.7414 33.73 43.9614C34.1062 44.4444 34.5319 44.8868 35 45.2814C29.26 47.8314 24.75 52.1814 24.75 62.4314H0C0 46.7814 13.67 51.7614 19.38 43.8914C20.04 42.8914 19.87 43.0014 19.13 42.2114ZM54 40.7414C52.19 39.1414 49.92 37.7414 49.62 34.4114H49.42C48.9709 34.4123 48.5295 34.295 48.14 34.0714C47.4977 33.6686 47.003 33.0687 46.73 32.3614C46.08 30.8614 45.56 26.9314 47.2 25.8014L46.89 25.6014V25.1614C46.83 24.3714 46.81 23.4114 46.79 22.4014C46.73 18.7014 46.66 14.2214 43.68 13.3214L42.41 12.9314L43.25 11.9314C45.4473 9.14164 47.9457 6.60294 50.7 4.36139C53.1456 2.24984 56.0877 0.794302 59.25 0.13139C60.7352 -0.106961 62.2545 -0.0202903 63.703 0.385423C65.1514 0.791136 66.4947 1.50623 67.64 2.48139C68.4682 3.15263 69.2224 3.91024 69.89 4.74139C71.2235 4.8872 72.5112 5.31257 73.6691 5.98975C74.827 6.66693 75.8291 7.5807 76.61 8.67139C77.6042 9.99471 78.3465 11.4896 78.8 13.0814C79.2702 14.7043 79.4695 16.3936 79.39 18.0814C79.3021 21.1335 78.054 24.0373 75.9 26.2014C76.2791 26.2159 76.6508 26.3114 76.99 26.4814C78.23 27.1414 78.27 28.5914 77.99 29.8014C77.67 30.8014 77.26 31.9814 76.87 32.9614C76.4 34.2914 75.72 34.5414 74.39 34.4014C74.33 37.6514 71.95 38.9814 69.92 40.8714C74.92 50.1314 94.34 44.0214 94.34 62.4314H29.48C29.48 44.0214 48.48 50.4314 53.98 40.7514L54 40.7414ZM90.23 42.9214C89.9604 42.6215 89.7068 42.3078 89.47 41.9814C88.92 41.2114 88.38 40.4114 87.88 39.6014L85.35 35.6014C84.514 34.5391 84.0034 33.2575 83.88 31.9114C83.8549 31.348 84.0074 30.7911 84.316 30.3191C84.6247 29.8472 85.0738 29.4842 85.6 29.2814C85.51 27.7714 85.45 26.2314 85.45 24.7114C85.45 23.8014 85.45 22.8914 85.45 22.0014C85.4841 21.4349 85.5848 20.8744 85.75 20.3314C86.4537 18.0396 87.987 16.0927 90.05 14.8714C90.7915 14.4224 91.5752 14.0472 92.39 13.7514C93.86 13.2114 93.15 10.9514 94.77 10.9214C98.55 10.8214 104.77 14.0614 107.2 16.6914C108.786 18.3747 109.673 20.5984 109.68 22.9114L109.52 29.5414C109.852 29.6189 110.156 29.7872 110.398 30.0273C110.64 30.2674 110.81 30.5701 110.89 30.9014C111.036 32.1109 110.787 33.3353 110.18 34.3914V34.3914C110.18 34.3914 110.13 34.3914 110.13 34.4914L107.25 39.2514C106.59 40.3214 105.92 41.4214 105.16 42.4314C104.25 43.6314 103.51 43.4314 104.28 44.5714C109.8 52.1614 122.88 47.3714 122.88 62.4614H99C99 52.7314 94.84 48.2714 89.47 45.6514C89.8119 45.3173 90.1263 44.9561 90.41 44.5714C91.04 43.6414 90.88 43.7114 90.16 42.9514L90.23 42.9214Z" fill="#6661E7"/>
</g>
<defs>
<clipPath id="clip0_1400_2">
<rect width="122.88" height="62.43" fill="white"/>
</clipPath>
</defs>
</svg>

<svg xmlns="http://www.w3.org/2000/svg" xmlns:xlink="http://www.w3.org/1999/xlink" width="122.88" height="62.43" viewBox="0 0 122.88 62.43">
  <defs>
    <clipPath id="clip-path">
      <rect id="Rectangle_1" data-name="Rectangle 1" width="122.88" height="62.43" fill="#e44499"/>
    </clipPath>
  </defs>
  <g id="users" clip-path="url(#clip-path)">
    <path id="Path_1" data-name="Path 1" d="M19.13,42.211a9.284,9.284,0,0,1-.79-1c-.58-.8-1.13-1.63-1.65-2.46L14.06,34.6a7.29,7.29,0,0,1-1.51-3.82,2.79,2.79,0,0,1,1.77-2.73c-.09-1.57-.15-3.16-.15-4.74,0-.93,0-1.88.05-2.8a7.852,7.852,0,0,1,.32-1.74A10,10,0,0,1,19,13.111,14.491,14.491,0,0,1,21.41,12c1.53-.56.79-2.9,2.47-2.94,3.92-.1,10.37,3.26,12.88,6a9.45,9.45,0,0,1,2.57,6.45l-.16,6.87a1.94,1.94,0,0,1,1.42,1.41,5.89,5.89,0,0,1-.74,3.62h0c0,.06-.05.06-.05.11l-3,4.93c-.68,1.11-1.38,2.25-2.17,3.29-.93,1.25-1.7,1-.9,2.22A8.8,8.8,0,0,0,35,45.281c-5.74,2.55-10.25,6.9-10.25,17.15H0c0-15.65,13.67-10.67,19.38-18.54C20.04,42.891,19.87,43,19.13,42.211ZM54,40.741c-1.81-1.6-4.08-3-4.38-6.33h-.2a2.561,2.561,0,0,1-1.28-.34,3.511,3.511,0,0,1-1.41-1.71c-.65-1.5-1.17-5.43.47-6.56l-.31-.2v-.44c-.06-.79-.08-1.75-.1-2.76-.06-3.7-.13-8.18-3.11-9.08l-1.27-.39.84-1a48.261,48.261,0,0,1,7.45-7.57A19.07,19.07,0,0,1,59.25.131a10.4,10.4,0,0,1,8.39,2.35,15,15,0,0,1,2.25,2.26,9.54,9.54,0,0,1,6.72,3.93,13.5,13.5,0,0,1,2.19,4.41,15.369,15.369,0,0,1,.59,5A12,12,0,0,1,75.9,26.2a2.66,2.66,0,0,1,1.09.28c1.24.66,1.28,2.11,1,3.32-.32,1-.73,2.18-1.12,3.16-.47,1.33-1.15,1.58-2.48,1.44-.06,3.25-2.44,4.58-4.47,6.47,5,9.26,24.42,3.15,24.42,21.56H29.48c0-18.41,19-12,24.5-21.68Zm36.23,2.18a11.559,11.559,0,0,1-.76-.94c-.55-.77-1.09-1.57-1.59-2.38l-2.53-4a7,7,0,0,1-1.47-3.69,2.69,2.69,0,0,1,1.72-2.63c-.09-1.51-.15-3.05-.15-4.57V22a7.23,7.23,0,0,1,.3-1.67,9.63,9.63,0,0,1,4.3-5.46,13.241,13.241,0,0,1,2.34-1.12c1.47-.54.76-2.8,2.38-2.83,3.78-.1,10,3.14,12.43,5.77a9.111,9.111,0,0,1,2.48,6.22l-.16,6.63a1.839,1.839,0,0,1,1.37,1.36,5.646,5.646,0,0,1-.71,3.49h0s-.05,0-.05.1l-2.88,4.76c-.66,1.07-1.33,2.17-2.09,3.18-.91,1.2-1.65,1-.88,2.14,5.52,7.59,18.6,2.8,18.6,17.89H99c0-9.73-4.16-14.19-9.53-16.81a8.876,8.876,0,0,0,.94-1.08c.63-.93.47-.86-.25-1.62Z" fill="#e44499"/>
  </g>
</svg>
